X:1
T:Title
%%score 1 { 2 | 3 }
L:1/8
Q:1/4=90
M:4/4
K:Ab
V:1 treble nm="Grand Piano, Soprano"
V:2 bass nm="Choir Pad, Tarry for the Power"
V:3 bass 
V:1
 [Ec][DB] [CA]>[CA] [CA][DF] [CE]2 | [A,C][B,D][CE][EA] [FA]>[=EB] [_Ec]2- | %2
w: By~Josephine~H.~Sweney,~1899 * * * * * *||
 [Ec][Ec][EB][EB] [EB][Ec] [Ed]<[Ed] | [Ec]>[EB] [Ec]6 | [Ec][Ed][Ae][Ac] [Ac]>[EB] [EA]2 | %5
w: |||
 [EA][EA][DB][DA] [DA]>[DF] [CE]2- | [CE][CE][DF][FA] [Fd][Af] [Ae]<[Ac] | [EB]>[EB] [EA]6 | %8
w: |||
 E2 [CA]<[CA] [CA]>[DB] [CA]2- | [CA][DB][Ec][EA] [FA][DF] [CE]2- | %10
w: ||
 [CE][CE][EA][EA] [EA]>[EB] [Ac][Ae] | [Ae]>[Ac] [GB]6 | E2 [CA]>[CA] [CA][DF] [CE]2- | %13
w: |||
 [CE][CE][EB][EB] [EB]>[Ec] [Ae]2- | [Ae]E[DF][FA] [Fd][Af] [Ae]<[Ac] | [EB]>[EB] [EA]6- | %16
w: |||
 [EA]2 z2 z4 |] %17
w: |
V:2
 A,A, E,>E, E,A, A,2 | E,E,A,A, A,>A, A,2- | A,A,G,G, G,A, B,<B, | A,>G, A,6 | %4
 A,B,[K:treble]CE E>D C2 | A,A,F,F, F,>A, A,2- | A,A,A,A, A,[K:treble]D C<E | D>D C6 | %8
 E,2 E,<E, E,>E, E,2- | E,A,A,A, A,A, A,2- | A,A,[K:treble]CC C>D EC | C>E E6 | %12
 E,2 E,>E, E,A, A,2- | A,A,[K:treble]CC C>E C2- | C[K:bass]A,A,A, A,D[K:treble] C<E | D>D C6- | %16
 C2 z2 z4 |] %17
V:3
 A,,A,, A,,>A,, A,,A,, A,,2 | A,,A,,A,,C, D,>D, A,,2- | A,,A,,E,E, E,E, E,<E, | E,>E, z2 z4 | %4
 z A,A,A, A,>A, A,2 | C,C,D,D, D,>D, A,,2- | A,,A,,D,D, D,D, E,<E, | E,>E, [A,,A,]6 | %8
 z2 A,,<A,, A,,>A,, A,,2- | A,,A,,A,,C, E,F, z2 | z2 A,A, A,>A, A,A, | A,>A, E,6 | %12
 z2 A,,>A,, A,,A,, A,,2- | A,,A,,A,A, A,>A, A,2- | A,C,D,D, D,D, E,<E, | E,>E, [A,,A,]6- | %16
 [A,,A,]2 z2 z4 |] %17

